src/pos-icons/robot-vacuum.svg

<svg height="24" viewBox="0 0 24 24" width="24" xmlns="http://www.w3.org/2000/svg"><path d="m12 2c2.65 0 5.19 1.06 7.07 2.93l-1.42 1.42c-1.5-1.5-3.53-2.35-5.65-2.35s-4.16.84-5.65 2.35l-1.42-1.42c1.88-1.87 4.42-2.93 7.07-2.93m-8.34 4.5 1.45 1.44c-.72 1.23-1.11 2.63-1.11 4.06a8 8 0 0 0 8 8 8 8 0 0 0 8-8c0-1.43-.39-2.83-1.12-4.06l1.46-1.44c1.08 1.62 1.66 3.54 1.66 5.5a10 10 0 0 1 -10 10 10 10 0 0 1 -10-10c0-1.96.58-3.88 1.66-5.5m8.34-.5a6 6 0 0 1 6 6c0 1.59-.63 3.12-1.76 4.24l-1.41-1.41c-.75.75-1.77 1.17-2.83 1.17s-2.08-.42-2.83-1.17l-1.41 1.41c-1.13-1.12-1.76-2.65-1.76-4.24a6 6 0 0 1 6-6m0 2a1 1 0 0 0 -1 1 1 1 0 0 0 1 1 1 1 0 0 0 1-1 1 1 0 0 0 -1-1z"/></svg>

<?xml version="1.0" encoding="UTF-8"?><!DOCTYPE svg PUBLIC "-//W3C//DTD SVG 1.1//EN" "http://www.w3.org/Graphics/SVG/1.1/DTD/svg11.dtd"><svg xmlns="http://www.w3.org/2000/svg" xmlns:xlink="http://www.w3.org/1999/xlink" version="1.1" id="mdi-robot-vacuum" width="24" height="24" viewBox="0 0 24 24"><path d="M12,2C14.65,2 17.19,3.06 19.07,4.93L17.65,6.35C16.15,4.85 14.12,4 12,4C9.88,4 7.84,4.84 6.35,6.35L4.93,4.93C6.81,3.06 9.35,2 12,2M3.66,6.5L5.11,7.94C4.39,9.17 4,10.57 4,12A8,8 0 0,0 12,20A8,8 0 0,0 20,12C20,10.57 19.61,9.17 18.88,7.94L20.34,6.5C21.42,8.12 22,10.04 22,12A10,10 0 0,1 12,22A10,10 0 0,1 2,12C2,10.04 2.58,8.12 3.66,6.5M12,6A6,6 0 0,1 18,12C18,13.59 17.37,15.12 16.24,16.24L14.83,14.83C14.08,15.58 13.06,16 12,16C10.94,16 9.92,15.58 9.17,14.83L7.76,16.24C6.63,15.12 6,13.59 6,12A6,6 0 0,1 12,6M12,8A1,1 0 0,0 11,9A1,1 0 0,0 12,10A1,1 0 0,0 13,9A1,1 0 0,0 12,8Z" /></svg>
